X:1
T: Flip McGilder's Reel
C:
R:Reel
Q: 232
K:Am
M:4/4
L:1/8
|:((3AAA) AG EF GB|((3AAA) AB cd ed|cB cG EF GB|Aa a^g aA AB|
((3AAA) AG EF GB|A^G AB cd ed|cB cG EF GB|Aa a^g aA A2|
ec gc ac gc|BG GA Bc df|ec gc ac gc|ag ed cA Ac|
ag ea ge dB|cB cG EF GB|A^G AB cd ea|ge de cA A2:|
